public/assets/images/icons/red/edit/folder-lock-empty.svg

<svg width="16" height="16" xmlns="http://www.w3.org/2000/svg" viewBox="0 0 16 16" shape-rendering="geometricPrecision" fill="#cb1800"><defs><mask id="a"><rect fill="#fff" width="100%" height="100%"/><path d="M15.568.488c.365-.9-.337-1.487-.851-1.704-.593-.25-1.396-.157-1.78.752l-.142.357-2.14 5.317.603 2.278 1.98-1.23L15.44.788l.128-.3z" fill="#000"/></mask></defs><path d="M11.686 6.423l.6-.513-.675-.269zM14.245.038a.714.714 0 0 0-.927.393l-.213.531 1.326.532.214-.532h-.001a.714.714 0 0 0-.399-.924zM11.527 4.9l1.433-3.573 1.325.532-1.433 3.572z"/><g mask="url(#a)"><path d="M7.394 4.755l-.816-1.923h-3.78l-.816 1.923H.861V14h14.278V4.755H7.394zm6.648 8.174H1.916v-7h12.125v7z"/><path d="M7.078 8.202a.932.932 0 1 1 1.863 0v.463h.57v-.463a1.502 1.502 0 1 0-3.003 0v.463h.57v-.463zm-1.057.859v2.904H10V9.061H6.021zm2.34 1.935a.35.35 0 0 1-.7 0v-.966a.35.35 0 0 1 .701 0v.966z"/></g></svg>

<?xml version="1.0"?><!DOCTYPE svg PUBLIC "-//W3C//DTD SVG 1.1//EN" "http://www.w3.org/Graphics/SVG/1.1/DTD/svg11.dtd"><svg width="16px" height="16px" xmlns="http://www.w3.org/2000/svg" viewBox="0 0 16 16" shape-rendering="geometricPrecision" fill="#cb1800"><defs><mask id="edit-path"><rect fill="#fff" width="100%" height="100%"/><path d="M15.568,0.488c0.365-0.9-0.337-1.487-0.851-1.704c-0.593-0.25-1.396-0.157-1.78,0.752l-0.142,0.357 l-2.14,5.317l0.603,2.278l1.98-1.23l2.202-5.47L15.568,0.488z" fill="#000"/></mask></defs><g id="edit_3_" fill="#cb1800"><polygon points="11.686,6.423 12.286,5.91 11.611,5.641 "/><path d="M14.245,0.038c-0.365-0.147-0.778,0.03-0.927,0.393l-0.213,0.531l1.326,0.532l0.214-0.532h-0.001 C14.787,0.597,14.61,0.183,14.245,0.038z"/><rect x="10.982" y="2.666" transform="matrix(0.3723 -0.9281 0.9281 0.3723 4.9642 14.0992)" width="3.849" height="1.428"/></g><g mask="url(#edit-path)"><path d="M7.394,4.755L6.578,2.832H2.798L1.982,4.755H0.861V14h14.278V4.755H7.394z M14.042,12.929H1.916v-7 h12.125V12.929z"/><g><path d="M7.078,8.202c0-0.515,0.417-0.932,0.932-0.932c0.514,0,0.931,0.416,0.931,0.932v0.463h0.57V8.202 c0-0.829-0.672-1.502-1.501-1.502c-0.829,0-1.502,0.672-1.502,1.502v0.463h0.57V8.202z M6.021,9.061v2.904H10V9.061H6.021z M8.361,10.996c0,0.193-0.156,0.349-0.349,0.349c-0.194,0-0.351-0.157-0.351-0.349V10.03c0-0.192,0.157-0.349,0.35-0.349 c0.194,0,0.351,0.157,0.351,0.349V10.996z"/></g></g></svg>
